!!!COM: Vivaldi, Antonio Lucio
!!!CDT: 1678/03/04-1741/08/28
!!!OPR: 12 Sonatas for Violin and Basso continuo
!!!OTL: Sonata in F major, op. @{OPS}, no. @{ONM} (@{SCT})
!!!OPS: 2
!!!ONM: 4
!!!OMV: 2. Allemanda
!!!SCT: RV 20
!!!SCA: Antonio Vivaldi: Thematisch-systematisches Verzeichnis seiner Werke (Ryom-Verzeichnis)
!!!OMD: Allegro
!!!key: F
**kern	**fb	**kern
*part2	*	*part1
*staff2	*	*staff1
*ICklav	*	*ICstr
*Icemba	*	*Ivioln
*I"Basso continuo	*	*I"Violino
*I'bc	*	*I'v
*>[A,A,B,B]	*>[A,A,B,B]	*>[A,A,B,B]
*>norep[A,B]	*>norep[A,B]	*>norep[A,B]
*>A	*>A	*>A
*clefF4	*	*clefG2
*k[b-]	*	*k[b-]
*F:	*	*F:
*M4/4	*	*M4/4
*met(c)	*	*met(c)
*MM136	*	*MM136
=1	=1	=1
16F\LL	.	4ff\
16c\	.	.
16F\	.	.
16c\JJ	.	.
16F\LL	.	8.cc\L
16c\	.	.
16F\	.	.
16c\JJ	.	16ff\Jk
16E\LL	6	4gg\
16c\	.	.
16E\	.	.
16c\JJ	.	.
16E\LL	.	8.cc\L
16c\	.	.
16E\	.	.
16c\JJ	.	16gg\Jk
=2	=2	=2
16F\LL	.	4aa\
16c\	.	.
16F\	.	.
16c\JJ	.	.
16F\LL	.	8.cc\L
16c\	.	.
16F\	.	.
16c\JJ	.	16aa\Jk
16E\LL	6	8gg\L
16c\	.	.
16E\	.	8ee\J
16c\JJ	.	.
16E\LL	.	4cc\
16c\	.	.
16E\	.	.
16c\JJ	.	.
=3	=3	=3
8F\L	.	16cc\LL
.	.	16b-y\
8c\J	.	16cc\
.	.	16dd\JJ
8A\L	.	16cc\LL
.	.	16ff\
8F\J	.	16ee\
.	.	16ff\JJ
8B-y\L	.	16dd\LL
.	.	16cc\
8BB-y\J	.	16dd\
.	.	16ee\JJ
4r	.	16dd\LL
.	.	16cc\
.	.	16dd\
.	.	16ee\JJ
!!LO:LB:g=original
=4	=4	=4
8Bn\L	6	16dd\LL
.	.	16cc\
8d\J	.	16dd\
.	.	16ee\JJ
8Bn\L	.	16dd\LL
.	.	16gg\
8G\J	.	16ff\
.	.	16gg\JJ
8c\L	.	16ee\LL
.	.	16dd\
8C\J	.	16ee\
.	.	16ff\JJ
4r	.	16ee\LL
.	.	16dd\
.	.	16ee\
.	.	16ff\JJ
=5	=5	=5
8c#X\L	6	16ee\LL
.	.	16dd\
8e\J	.	16ee\
.	.	16ff\JJ
8c#X\L	.	16ee\LL
.	.	16aa\
8A\J	.	16gg\
.	.	16aa\JJ
8d\L	.	16ff\LL
.	.	16ee\
8D\J	.	16ff\
.	.	16gg\JJ
4r	.	16ff\LL
.	.	16ee\
.	.	16ff\
.	.	16gg\JJ
=6	=6	=6
8d\L	5	16ff\LL
.	.	16ee\
8f\J	.	16ff\
.	.	16gg\JJ
8d\L	6	16ff\LL
.	.	16bb-y\
8B-y\J	.	16aa\
.	.	16bb-y\JJ
8E/L	6	16cc\LL
.	.	16ee\
8C/J	.	16dd\
.	.	16ee\JJ
8F/L	.	16a\LL
.	.	16ff\
8FF/J	.	16ee\
.	.	16ff\JJ
=7	=7	=7
8GG\L	.	16b-y\LL
.	.	16ff\
8G\J	.	16ee\
.	.	16ff\JJ
8c\L	.	16cc\LL
.	.	16ee\
8C\J	.	16dd\
.	.	16ee\JJ
2FF/	.	4ff\
.	.	4f/
!!LO:LB:g=original
=8	=8	=8
16F\LL	.	4ff\
16c\	.	.
16F\	.	.
16c\JJ	.	.
16F\LL	.	8.cc\L
16c\	.	.
16F\	.	.
16c\JJ	.	16aa\Jk
16E\LL	6	4gg\
16c\	.	.
16E\	.	.
16c\JJ	.	.
16E\LL	.	8.cc\L
16c\	.	.
16E\	.	.
16c\JJ	.	16gg\Jk
=9	=9	=9
16D\LL	7	4ff\
16c\	.	.
16D\	.	.
16c\JJ	.	.
16D\LL	6nr	8.bn\L
16Bn\	.	.
16D\	.	.
16B\JJ	.	16ff\Jk
16E\LL	6	8ee\L
16c\	.	.
16E\	.	8cc\J
16c\JJ	.	.
16E\LL	.	4c/
16c\	.	.
16E\	.	.
16c\JJ	.	.
=10	=10	=10
8E\L	6	16g/LL
.	.	16f/
8G\J	.	16g/
.	.	16a/JJ
8E\L	.	16g/LL
.	.	16cc/
8C\J	.	16bn/
.	.	16cc/JJ
8F/L	.	16a/LL
.	.	16g/
8FF/J	.	16a/
.	.	16bn/JJ
4r	.	16a/LL
.	.	16g/
.	.	16a/
.	.	16bn/JJ
=11	=11	=11
8F#X\L	6	16a/LL
.	.	16g/
8A\J	.	16a/
.	.	16bn/JJ
8F#X\L	.	16a/LL
.	.	16dd/
8D\J	.	16cc/
.	.	16dd/JJ
8G/L	n	16bn/LL
.	.	16a/
8GG/J	.	16b/
.	.	16cc/JJ
4r	.	16bn/LL
.	.	16a/
.	.	16b/
.	.	16cc/JJ
!!LO:LB:g=original
=12	=12	=12
8G#X\L	6 (n)	16bn\LL
.	.	16a\
8Bn\J	.	16b\
.	.	16cc\JJ
8G#X\L	.	16bn\LL
.	.	16ee\
8E\J	.	16dd\
.	.	16ee\JJ
8A\L	.	16cc\LL
.	.	16bn\
8AA\J	.	16cc\
.	.	16dd\JJ
4r	.	16cc\LL
.	.	16bn\
.	.	16cc\
.	.	16dd\JJ
=13	=13	=13
8A\L	5	16cc\LL
.	.	16bn\
8c\J	.	16cc\
.	.	16dd\JJ
8A\L	6	16cc\LL
.	.	16ff\
8F\J	.	16ee\
.	.	16ff\JJ
8BBn/L	6	16g/LL
.	.	16bn/
8GG/J	.	16a/
.	.	16b/JJ
8C/L	.	16e/LL
.	.	16cc/
8E/J	.	16bn/
.	.	16cc/JJ
=14	=14	=14
8F\L	6 5	16d/LL
.	.	16cc/
8D\J	.	16bn/
.	.	16cc/JJ
8G\L	n	16d/LL
.	.	16bn/
8GG\J	.	16a/
.	.	16b/JJ
2C/	.	4cc\
.	.	4c/
=15:|!|:	=15:|!|:	=15:|!|:
*>B	*>B	*>B
16C\LL	.	4cc\
16G\	.	.
16C\	.	.
16G\JJ	.	.
16C\LL	.	8.g/L
16G\	.	.
16C\	.	.
16G\JJ	.	16cc/Jk
16BBn\LL	6	4dd\
16G\	.	.
16BB\	.	.
16G\JJ	.	.
16BBn\LL	.	8.g\L
16G\	.	.
16BB\	.	.
16G\JJ	.	16dd\Jk
!!LO:LB:g=original
=16	=16	=16
16C\LL	.	4ee\
16G\	.	.
16C\	.	.
16G\JJ	.	.
16C\LL	.	8.g\L
16G\	.	.
16C\	.	.
16G\JJ	.	16ee\Jk
2BBn/	6	8dd\L
.	.	8bn\J
.	.	4g/
=17	=17	=17
16D\LL	.	4dd\
16A\	.	.
16D\	.	.
16A\JJ	.	.
16D\LL	.	8.a\L
16A\	.	.
16D\	.	.
16A\JJ	.	16dd\Jk
16C#X\LL	6	4ee\
16A\	.	.
16C#y\	.	.
16A\JJ	.	.
16C#X\LL	.	8.a\L
16A\	.	.
16C#y\	.	.
16A\JJ	.	16ee\Jk
=18	=18	=18
16D\LL	.	4ff\
16A\	.	.
16D\	.	.
16A\JJ	.	.
16D\LL	.	8.a\L
16A\	.	.
16D\	.	.
16A\JJ	.	16ff\Jk
2C#X/	6	8ee\L
.	.	8cc#X\J
.	.	4a/
=19	=19	=19
8d\L	.	16ff\LL
.	.	16ee\
8F\J	.	16ff\
.	.	16gg\JJ
8D\L	.	16ff\LL
.	.	16bb-y\
8d\J	.	16aa\
.	.	16bb-y\JJ
8c#X\L	6	16ee\LL
.	.	16dd\
8C#X\J	.	16ee\
.	.	16ff\JJ
8r	.	16ee\LL
.	.	16aa\
8cn\	.	16gg\
.	.	16aa\JJ
!!LO:LB:g=original
=20	=20	=20
8Bn\L	6	16dd\LL
.	.	16cc\
8D\J	.	16dd\
.	.	16ee\JJ
8GG\L	.	16dd\LL
.	.	16gg\
8B-X\J	.	16ff\
.	.	16gg\JJ
8A\L	.	16cc\LL
.	.	16b-y\
8AA\J	.	16cc\
.	.	16dd\JJ
8r	.	16cc\LL
.	.	16ff\
8A\	6	16ee\
.	.	16ff\JJ
=21	=21	=21
8G/L	5	16b-y\LL
.	.	16a\
8BB-y/J	.	16b-y\
.	.	16cc\JJ
8GG/L	6	16b-y\LL
.	.	16ee\
8G/J	.	16dd\
.	.	16ee\JJ
8F/L	.	16a/LL
.	.	16g/
8FF/J	.	16a/
.	.	16b-y/JJ
8r	.	16a\LL
.	.	16dd\
8F\	6	16cc\
.	.	16dd\JJ
=22	=22	=22
8E/L	7	16g\LL
.	.	16dd\
8GG/J	.	16cc#X\
.	.	16dd\JJ
8AA/L	#	16e/LL
.	.	16cc#y/
8A/J	.	16bn/
.	.	16cc#X/JJ
16d\LL	.	8dd/L
16c#X\	.	.
16d\	.	8d/J
16e\JJ	.	.
16d\LL	.	8r
16e\	.	.
16d\	.	8ff\
16c#y\JJ	.	.
=23	=23	=23
16Bn\LL	6	8dd\L
16A\	.	.
16B\	.	8bn\J
16c\JJ	.	.
16Bn\LL	.	8g\L
16c\	.	.
16d\	.	8ff\J
16Bn\JJ	.	.
16c\LL	.	8ee/L
16Bn\	.	.
16c\	.	8c/J
16d\JJ	.	.
16c\LL	-	8r
16d\	.	.
16e-X\	.	8ee-X\
16c\JJ	.	.
!!LO:LB:g=original
=24	=24	=24
16A\LL	5-r	8cc/L
16G\	.	.
16A\	.	8a/J
16B-y\JJ	.	.
16A\LL	6	8f/L
16B-y\	.	.
16c\	.	8ee-X/J
16A\JJ	.	.
16B-y\LL	.	8dd/L
16A\	.	.
16B-y\	.	8B-y/J
16c\JJ	.	.
16B-y\LL	.	8r
16c\	.	.
16d\	.	8dd\
16c\JJ	.	.
=25	=25	=25
16Bn\LL	6	8gg\L
16A\	.	.
16B\	.	8ff\J
16c\JJ	.	.
16Bn\LL	.	8ff\LT
16c\	.	.
16d\	.	16een\L
16Bn\JJ	.	16dd\JJ
2c\	.	8ee\L
.	.	8cc\J
.	.	4c/
=26	=26	=26
8A\L	5	16cc\LL
.	.	16b-y\
8c\J	.	16cc\
.	.	16dd\JJ
8A\L	6	16cc\LL
.	.	16ff\
8F\J	.	16ee\
.	.	16ff\JJ
8B-y\L	.	16dd\LL
.	.	16cc\
8BB-y\J	.	16dd\
.	.	16ee\JJ
4r	.	16dd\LL
.	.	16cc\
.	.	16dd\
.	.	16ee\JJ
=27	=27	=27
8Bn\L	5	16dd\LL
.	.	16cc\
8d\J	.	16dd\
.	.	16ee\JJ
8Bn\L	6	16dd\LL
.	.	16gg\
8G\J	.	16ff\
.	.	16gg\JJ
8c\L	.	16ee\LL
.	.	16dd\
8C\J	.	16ee\
.	.	16ff\JJ
4r	.	16ee\LL
.	.	16dd\
.	.	16ee\
.	.	16ff\JJ
!!LO:PB:g=original
=28	=28	=28
8c#X\L	6	16ee\LL
.	.	16dd\
8e\J	.	16ee\
.	.	16ff\JJ
8c#X\L	.	16ee\LL
.	.	16aa\
8A\J	.	16gg\
.	.	16aa\JJ
8d\L	.	16ff\LL
.	.	16ee\
8D\J	.	16ff\
.	.	16gg\JJ
4r	.	16ff\LL
.	.	16ee\
.	.	16ff\
.	.	16gg\JJ
=29	=29	=29
8d\L	5	16ff\LL
.	.	16ee\
8f\J	.	16ff\
.	.	16gg\JJ
8d\L	6	16ff\LL
.	.	16bb-y\
8B-y\J	.	16aa\
.	.	16bb-y\JJ
8E/L	6	16cc\LL
.	.	16ee\
8C/J	.	16dd\
.	.	16ee\JJ
8F/L	.	16a\LL
.	.	16ff\
8AA/J	.	16ee\
.	.	16ff\JJ
=30	=30	=30
8GG\L	7	16b-y\LL
.	.	16ff\
8G\J	.	16ee\
.	.	16ff\JJ
8c\L	.	16cc\LL
.	.	16ee\
8C\J	.	16dd\
.	.	16ee\JJ
2FF/	.	4ff\
.	.	4f/
=31	=31	=31
16C/LL	6 4	8a/L
16BB-y/	.	.
16C/	.	8cc/J
16D/JJ	.	.
16C\LL	.	8a/L
16F\	.	.
16E\	.	8f/J
16F\JJ	.	.
16D\LL	6	8b-y/L
16C\	.	.
16D\	.	8B-y/J
16E\JJ	.	.
16D\LL	.	4r
16C\	.	.
16D\	.	.
16E\JJ	.	.
!!LO:LB:g=original
=32	=32	=32
16D\LL	6nr	8bn\L
16C\	.	.
16D\	.	8dd\J
16E\JJ	.	.
16D\LL	.	8bn/L
16G\	.	.
16F\	.	8g/J
16G\JJ	.	.
16E\LL	6	8cc/L
16D\	.	.
16E\	.	8c/J
16F\JJ	.	.
16E\LL	.	4r
16D\	.	.
16E\	.	.
16F\JJ	.	.
=33	=33	=33
16E\LL	6#/	8cc#X\L
16D\	.	.
16E\	.	8ee\J
16F\JJ	.	.
16E\LL	.	8cc#X\L
16A\	.	.
16G\	.	8a\J
16A\JJ	.	.
16F\LL	6	8dd/L
16E\	.	.
16F\	.	8d/J
16G\JJ	.	.
16F\LL	.	4r
16E\	.	.
16F\	.	.
16G\JJ	.	.
=34	=34	=34
16F\LL	6	8dd\L
16E\	.	.
16F\	.	8ff\J
16G\JJ	.	.
16F\LL	.	8dd\L
16B-y\	.	.
16A\	.	8b-y\J
16B-y\JJ	.	.
16C\LL	.	8g/L
16E\	.	.
16D\	.	8e/J
16E\JJ	.	.
16AA\LL	6	8f/L
16F\	.	.
16E\	.	8cc/J
16F\JJ	.	.
=35	=35	=35
16GG\LL	7	8b-y/L
16F\	.	.
16E\	.	8a/J
16F\JJ	.	.
16C\LL	.	4g/
16E\	.	.
16D\	.	.
16E\JJ	.	.
2FF/;	.	2f/;
=:|!	=:|!	=:|!
*-	*-	*-
!!!SMS: RV 20 / Estienne Roger, Amsterdam [facs.]
!!!ENC: Fran Bennion; rev. 04/21 E. Correia
!!!END: 2004/11/24
!!!ONB: Converted from MuseData with musedata2hum on Sat May 11 12:07:52 2024
!!!YEM: (C) 2004, 2004 Center for Computer Assisted Research in the Humanities.
!!!system-decoration: [(s1,s2)]
!!!URL-info: https://wiki.ccarh.org/wiki/MuseData:_Antonio_Vivaldi#Op._2:_Sonate_a_violino_e_basso_per_il_cembalo
!!!URL-pdf: https://pdf.musedata.org/vivaldi-op02-no04.pdf#page=2 MuseData edition
!!!URL-pdf: http://conquest.imslp.info/files/imglnks/usimg/b/b7/IMSLP99075-PMLP183164-Vivaldi_-_Sonatas_Op2.pdf#page=14 Estienne Roger Amsterdam: Estienne Roger, No.2, n.d.[1711].
!!!URL-youtube: https://www.youtube.com/watch?v=SiijZmW9jKM&t=1083s L'Arte dell'Arco
!!!title: @{OTL}, mov. @{OMV}
!!!filter-chint: chint -mid
!!!EEV: 2024/05/11
!!!source-file: https://bitbucket.org/musedata/vivaldi/src/master/roger/op2/no04/stage2/02/01
!!!source-file: https://bitbucket.org/musedata/vivaldi/src/master/roger/op2/no04/stage2/02/02
